X:1
T: Yet Another Birthday
T: 3x32S 3C (Holly Boyd)
T: Poussette, hands acr, bourrel
P: C'est a Ton Tour
C: Laura Risk / Les Joueurs de Bon Music
C: Arr. T. Traub 7-24-03
K: Bm
M: 4/4
L: 1/8
d|"Bm"B<FF>E D<B,B,>A,|"Bm"B,DFA Bcdf|"A"e<cc>B A<E E2|"A"EAcA e>d!beambr1!c<A|"Bm"d>c!beambr1!c<d B<F F2|"Bm"d>B!beambr1!f<a "A"e2 (3efg|
"Bm"f>d!beambr1!c<f d>c!beambr1!c<f|"A"d>c!beambr1!c<A "Bm"B2 z f||"Bm"bffe d<BB>c|"Bm"d>Bf>d b>f!beambr1!f<b|"A"a>ee>d c<A A2|
"A"EAcd ecab|"Bm"f>e de/f/ "A"e>d cd/e/|"Bm"d>B!beambr1!f<a "A"e2 ef/g/|"Bm"f>d!beambr1!c<f d>c!beambr1!c<f|"A"d>c!beambr1!c<A "Bm"B2 |]
